static/images/cm_logo.svg

<svg width="420" height="154" viewBox="0 0 420 154" fill="none" xmlns="http://www.w3.org/2000/svg">
<g clip-path="url(#clip0_773_2)">
<path d="M43.475 23.46C42.1717 21.8733 40.5567 20.655 38.63 19.805C36.76 18.955 34.5783 18.53 32.085 18.53C29.5917 18.53 27.2683 19.0117 25.115 19.975C23.0183 20.9383 21.1767 22.2983 19.59 24.055C18.06 25.755 16.8417 27.795 15.935 30.175C15.085 32.555 14.66 35.1333 14.66 37.91C14.66 40.7433 15.085 43.35 15.935 45.73C16.8417 48.0533 18.06 50.0933 19.59 51.85C21.12 53.55 22.905 54.8817 24.945 55.845C27.0417 56.8083 29.28 57.29 31.66 57.29C34.38 57.29 36.7883 56.7233 38.885 55.59C40.9817 54.4567 42.71 52.87 44.07 50.83L55.12 59.075C52.57 62.645 49.34 65.28 45.43 66.98C41.52 68.68 37.4967 69.53 33.36 69.53C28.6567 69.53 24.3217 68.7933 20.355 67.32C16.3883 65.8467 12.96 63.75 10.07 61.03C7.18 58.2533 4.91333 54.91 3.27 51C1.68333 47.09 0.89 42.7267 0.89 37.91C0.89 33.0933 1.68333 28.73 3.27 24.82C4.91333 20.91 7.18 17.595 10.07 14.875C12.96 12.0983 16.3883 9.97333 20.355 8.5C24.3217 7.02666 28.6567 6.29 33.36 6.29C35.06 6.29 36.8167 6.46 38.63 6.8C40.5 7.08333 42.3133 7.565 44.07 8.245C45.8833 8.925 47.6117 9.83166 49.255 10.965C50.8983 12.0983 52.3717 13.4867 53.675 15.13L43.475 23.46ZM60.6935 26.69H73.4435V33.32H73.6135C74.9735 30.77 76.5885 28.8717 78.4585 27.625C80.3285 26.3217 82.6801 25.67 85.5135 25.67C86.2501 25.67 86.9868 25.6983 87.7235 25.755C88.4601 25.8117 89.1401 25.925 89.7635 26.095V37.74C88.8568 37.4567 87.9501 37.2583 87.0435 37.145C86.1935 36.975 85.2868 36.89 84.3235 36.89C81.8868 36.89 79.9601 37.23 78.5435 37.91C77.1268 38.59 76.0218 39.5533 75.2285 40.8C74.4918 41.99 74.0101 43.435 73.7835 45.135C73.5568 46.835 73.4435 48.705 73.4435 50.745V68H60.6935V26.69ZM95.4777 26.69H108.228V68H95.4777V26.69ZM94.4577 13.685C94.4577 11.645 95.1661 9.91666 96.5827 8.5C98.0561 7.02666 99.8127 6.29 101.853 6.29C103.893 6.29 105.621 7.02666 107.038 8.5C108.511 9.91666 109.248 11.645 109.248 13.685C109.248 15.725 108.511 17.4817 107.038 18.955C105.621 20.3717 103.893 21.08 101.853 21.08C99.8127 21.08 98.0561 20.3717 96.5827 18.955C95.1661 17.4817 94.4577 15.725 94.4577 13.685ZM145.523 36.89H134.303V50.66C134.303 51.7933 134.359 52.8417 134.473 53.805C134.586 54.7117 134.841 55.505 135.238 56.185C135.634 56.865 136.229 57.4033 137.023 57.8C137.873 58.14 138.978 58.31 140.338 58.31C141.018 58.31 141.896 58.2533 142.973 58.14C144.106 57.97 144.956 57.63 145.523 57.12V67.745C144.106 68.255 142.633 68.595 141.103 68.765C139.573 68.935 138.071 69.02 136.598 69.02C134.444 69.02 132.461 68.7933 130.648 68.34C128.834 67.8867 127.248 67.1783 125.888 66.215C124.528 65.195 123.451 63.8917 122.658 62.305C121.921 60.7183 121.553 58.7917 121.553 56.525V36.89H113.393V26.69H121.553V14.45H134.303V26.69H145.523V36.89ZM152.172 26.69H164.922V68H152.172V26.69ZM151.152 13.685C151.152 11.645 151.86 9.91666 153.277 8.5C154.75 7.02666 156.507 6.29 158.547 6.29C160.587 6.29 162.315 7.02666 163.732 8.5C165.205 9.91666 165.942 11.645 165.942 13.685C165.942 15.725 165.205 17.4817 163.732 18.955C162.315 20.3717 160.587 21.08 158.547 21.08C156.507 21.08 154.75 20.3717 153.277 18.955C151.86 17.4817 151.152 15.725 151.152 13.685ZM202.047 40.035C201.424 39.1283 200.545 38.3917 199.412 37.825C198.279 37.2017 197.06 36.89 195.757 36.89C192.527 36.89 190.005 37.8533 188.192 39.78C186.435 41.7067 185.557 44.2283 185.557 47.345C185.557 50.4617 186.435 52.9833 188.192 54.91C190.005 56.8367 192.527 57.8 195.757 57.8C197.174 57.8 198.392 57.4883 199.412 56.865C200.432 56.2417 201.31 55.505 202.047 54.655L210.462 63.495C208.479 65.535 206.127 66.98 203.407 67.83C200.744 68.6233 198.194 69.02 195.757 69.02C192.584 69.02 189.58 68.51 186.747 67.49C183.97 66.47 181.534 65.025 179.437 63.155C177.397 61.2283 175.782 58.9333 174.592 56.27C173.402 53.6067 172.807 50.6317 172.807 47.345C172.807 44.0583 173.402 41.0833 174.592 38.42C175.782 35.7567 177.397 33.49 179.437 31.62C181.534 29.6933 183.97 28.22 186.747 27.2C189.58 26.18 192.584 25.67 195.757 25.67C198.194 25.67 200.744 26.095 203.407 26.945C206.127 27.7383 208.479 29.155 210.462 31.195L202.047 40.035ZM241.013 62.815H240.843C239.426 65.025 237.528 66.6117 235.148 67.575C232.825 68.5383 230.36 69.02 227.753 69.02C225.826 69.02 223.956 68.7367 222.143 68.17C220.386 67.66 218.828 66.8667 217.468 65.79C216.108 64.7133 215.031 63.3817 214.238 61.795C213.445 60.2083 213.048 58.3667 213.048 56.27C213.048 53.89 213.473 51.8783 214.323 50.235C215.23 48.5917 216.42 47.2317 217.893 46.155C219.423 45.0783 221.151 44.2567 223.078 43.69C225.005 43.0667 226.988 42.6133 229.028 42.33C231.125 42.0467 233.193 41.8767 235.233 41.82C237.33 41.7633 239.256 41.735 241.013 41.735C241.013 39.4683 240.191 37.6833 238.548 36.38C236.961 35.02 235.063 34.34 232.853 34.34C230.756 34.34 228.83 34.7933 227.073 35.7C225.373 36.55 223.843 37.74 222.483 39.27L215.683 32.3C218.063 30.09 220.84 28.4467 224.013 27.37C227.186 26.2367 230.473 25.67 233.873 25.67C237.613 25.67 240.673 26.1517 243.053 27.115C245.49 28.0217 247.416 29.3817 248.833 31.195C250.306 33.0083 251.326 35.2467 251.893 37.91C252.46 40.5167 252.743 43.5483 252.743 47.005V68H241.013V62.815ZM237.868 49.895C236.905 49.895 235.686 49.9517 234.213 50.065C232.796 50.1217 231.408 50.3483 230.048 50.745C228.745 51.1417 227.611 51.7367 226.648 52.53C225.741 53.3233 225.288 54.4283 225.288 55.845C225.288 57.375 225.94 58.5083 227.243 59.245C228.546 59.9817 229.906 60.35 231.323 60.35C232.57 60.35 233.76 60.18 234.893 59.84C236.083 59.5 237.131 59.0183 238.038 58.395C238.945 57.7717 239.653 56.9783 240.163 56.015C240.73 55.0517 241.013 53.9183 241.013 52.615V49.895H237.868ZM260.912 3.74H273.662V68H260.912V3.74ZM4.12 89.82H24.18L38.035 129.09H38.205L52.145 89.82H72.12V150H58.86V103.845H58.69L42.88 150H32.765L17.55 103.845H17.38V150H4.12V89.82ZM81.2436 129.345C81.2436 126.058 81.8386 123.083 83.0286 120.42C84.2186 117.757 85.8336 115.49 87.8736 113.62C89.9702 111.693 92.4069 110.22 95.1836 109.2C98.0169 108.18 101.02 107.67 104.194 107.67C107.367 107.67 110.342 108.18 113.119 109.2C115.952 110.22 118.389 111.693 120.429 113.62C122.525 115.49 124.169 117.757 125.359 120.42C126.549 123.083 127.144 126.058 127.144 129.345C127.144 132.632 126.549 135.607 125.359 138.27C124.169 140.933 122.525 143.228 120.429 145.155C118.389 147.025 115.952 148.47 113.119 149.49C110.342 150.51 107.367 151.02 104.194 151.02C101.02 151.02 98.0169 150.51 95.1836 149.49C92.4069 148.47 89.9702 147.025 87.8736 145.155C85.8336 143.228 84.2186 140.933 83.0286 138.27C81.8386 135.607 81.2436 132.632 81.2436 129.345ZM93.9936 129.345C93.9936 132.462 94.8719 134.983 96.6286 136.91C98.4419 138.837 100.964 139.8 104.194 139.8C107.424 139.8 109.917 138.837 111.674 136.91C113.487 134.983 114.394 132.462 114.394 129.345C114.394 126.228 113.487 123.707 111.674 121.78C109.917 119.853 107.424 118.89 104.194 118.89C100.964 118.89 98.4419 119.853 96.6286 121.78C94.8719 123.707 93.9936 126.228 93.9936 129.345ZM134.653 108.69H146.893V114.3H147.063C147.46 113.507 148.027 112.713 148.763 111.92C149.5 111.127 150.378 110.418 151.398 109.795C152.418 109.172 153.58 108.662 154.883 108.265C156.187 107.868 157.603 107.67 159.133 107.67C162.023 107.67 164.573 108.265 166.783 109.455C169.05 110.645 170.75 112.515 171.883 115.065C173.357 112.402 175.142 110.503 177.238 109.37C179.335 108.237 181.913 107.67 184.973 107.67C187.75 107.67 190.073 108.152 191.943 109.115C193.87 110.022 195.372 111.297 196.448 112.94C197.582 114.527 198.375 116.425 198.828 118.635C199.338 120.788 199.593 123.112 199.593 125.605V150H186.843V125.945C186.843 124.018 186.418 122.375 185.568 121.015C184.775 119.598 183.33 118.89 181.233 118.89C179.76 118.89 178.513 119.145 177.493 119.655C176.53 120.108 175.737 120.76 175.113 121.61C174.547 122.46 174.122 123.452 173.838 124.585C173.612 125.718 173.498 126.908 173.498 128.155V150H160.748V128.155C160.748 127.418 160.72 126.512 160.663 125.435C160.607 124.358 160.408 123.338 160.068 122.375C159.728 121.412 159.162 120.59 158.368 119.91C157.632 119.23 156.527 118.89 155.053 118.89C153.41 118.89 152.078 119.202 151.058 119.825C150.038 120.392 149.245 121.185 148.678 122.205C148.168 123.168 147.828 124.273 147.658 125.52C147.488 126.767 147.403 128.07 147.403 129.43V150H134.653V108.69ZM247.713 142.86C245.673 145.467 243.095 147.478 239.978 148.895C236.862 150.312 233.632 151.02 230.288 151.02C227.115 151.02 224.112 150.51 221.278 149.49C218.502 148.47 216.065 147.025 213.968 145.155C211.928 143.228 210.313 140.933 209.123 138.27C207.933 135.607 207.338 132.632 207.338 129.345C207.338 126.058 207.933 123.083 209.123 120.42C210.313 117.757 211.928 115.49 213.968 113.62C216.065 111.693 218.502 110.22 221.278 109.2C224.112 108.18 227.115 107.67 230.288 107.67C233.235 107.67 235.898 108.18 238.278 109.2C240.715 110.22 242.755 111.693 244.398 113.62C246.098 115.49 247.402 117.757 248.308 120.42C249.215 123.083 249.668 126.058 249.668 129.345V133.34H220.088C220.598 135.777 221.703 137.732 223.403 139.205C225.103 140.622 227.2 141.33 229.693 141.33C231.79 141.33 233.547 140.877 234.963 139.97C236.437 139.007 237.712 137.788 238.788 136.315L247.713 142.86ZM236.918 124.67C236.975 122.517 236.267 120.675 234.793 119.145C233.32 117.615 231.422 116.85 229.098 116.85C227.682 116.85 226.435 117.077 225.358 117.53C224.282 117.983 223.347 118.578 222.553 119.315C221.817 119.995 221.222 120.817 220.768 121.78C220.372 122.687 220.145 123.65 220.088 124.67H236.918ZM257.422 108.69H269.662V114.3H269.832C270.229 113.507 270.795 112.713 271.532 111.92C272.269 111.127 273.147 110.418 274.167 109.795C275.187 109.172 276.349 108.662 277.652 108.265C278.955 107.868 280.372 107.67 281.902 107.67C285.132 107.67 287.739 108.18 289.722 109.2C291.705 110.163 293.235 111.523 294.312 113.28C295.445 115.037 296.21 117.105 296.607 119.485C297.004 121.865 297.202 124.443 297.202 127.22V150H284.452V129.77C284.452 128.58 284.395 127.362 284.282 126.115C284.225 124.812 283.97 123.622 283.517 122.545C283.12 121.468 282.469 120.59 281.562 119.91C280.712 119.23 279.465 118.89 277.822 118.89C276.179 118.89 274.847 119.202 273.827 119.825C272.807 120.392 272.014 121.185 271.447 122.205C270.937 123.168 270.597 124.273 270.427 125.52C270.257 126.767 270.172 128.07 270.172 129.43V150H257.422V108.69ZM334.366 118.89H323.146V132.66C323.146 133.793 323.202 134.842 323.316 135.805C323.429 136.712 323.684 137.505 324.081 138.185C324.477 138.865 325.072 139.403 325.866 139.8C326.716 140.14 327.821 140.31 329.181 140.31C329.861 140.31 330.739 140.253 331.816 140.14C332.949 139.97 333.799 139.63 334.366 139.12V149.745C332.949 150.255 331.476 150.595 329.946 150.765C328.416 150.935 326.914 151.02 325.441 151.02C323.287 151.02 321.304 150.793 319.491 150.34C317.677 149.887 316.091 149.178 314.731 148.215C313.371 147.195 312.294 145.892 311.501 144.305C310.764 142.718 310.396 140.792 310.396 138.525V118.89H302.236V108.69H310.396V96.45H323.146V108.69H334.366V118.89ZM364.22 120.845C362.35 118.522 359.885 117.36 356.825 117.36C355.748 117.36 354.7 117.615 353.68 118.125C352.66 118.635 352.15 119.513 352.15 120.76C352.15 121.78 352.66 122.545 353.68 123.055C354.757 123.508 356.088 123.933 357.675 124.33C359.318 124.67 361.047 125.067 362.86 125.52C364.73 125.917 366.458 126.568 368.045 127.475C369.688 128.382 371.02 129.628 372.04 131.215C373.117 132.745 373.655 134.813 373.655 137.42C373.655 140.083 373.06 142.293 371.87 144.05C370.737 145.75 369.263 147.138 367.45 148.215C365.637 149.235 363.597 149.943 361.33 150.34C359.063 150.793 356.825 151.02 354.615 151.02C351.725 151.02 348.807 150.623 345.86 149.83C342.913 148.98 340.42 147.507 338.38 145.41L346.115 136.825C347.305 138.298 348.608 139.432 350.025 140.225C351.498 140.962 353.198 141.33 355.125 141.33C356.598 141.33 357.93 141.132 359.12 140.735C360.31 140.282 360.905 139.488 360.905 138.355C360.905 137.278 360.367 136.485 359.29 135.975C358.27 135.408 356.938 134.955 355.295 134.615C353.708 134.218 351.98 133.822 350.11 133.425C348.297 132.972 346.568 132.32 344.925 131.47C343.338 130.62 342.007 129.43 340.93 127.9C339.91 126.313 339.4 124.217 339.4 121.61C339.4 119.173 339.882 117.077 340.845 115.32C341.865 113.563 343.168 112.118 344.755 110.985C346.398 109.852 348.268 109.03 350.365 108.52C352.462 107.953 354.587 107.67 356.74 107.67C359.46 107.67 362.208 108.067 364.985 108.86C367.762 109.653 370.113 111.07 372.04 113.11L364.22 120.845Z" fill="#180042"/>
</g>
<defs>
<clipPath id="clip0_773_2">
<rect width="420" height="154" fill="white"/>
</clipPath>
</defs>
</svg>

<svg xmlns="http://www.w3.org/2000/svg" width="420" height="154" fill="none" xmlns:v="https://vecta.io/nano"><g clip-path="url(#A)"><path d="M43.475 23.46c-1.303-1.587-2.918-2.805-4.845-3.655-1.87-.85-4.052-1.275-6.545-1.275s-4.817.482-6.97 1.445c-2.097.963-3.938 2.323-5.525 4.08-1.53 1.7-2.748 3.74-3.655 6.12-.85 2.38-1.275 4.958-1.275 7.735 0 2.833.425 5.44 1.275 7.82.907 2.323 2.125 4.363 3.655 6.12 1.53 1.7 3.315 3.032 5.355 3.995 2.097.963 4.335 1.445 6.715 1.445 2.72 0 5.128-.567 7.225-1.7s3.825-2.72 5.185-4.76l11.05 8.245c-2.55 3.57-5.78 6.205-9.69 7.905s-7.933 2.55-12.07 2.55c-4.703 0-9.038-.737-13.005-2.21s-7.395-3.57-10.285-6.29C7.18 58.253 4.913 54.91 3.27 51 1.683 47.09.89 42.727.89 37.91s.793-9.18 2.38-13.09c1.643-3.91 3.91-7.225 6.8-9.945 2.89-2.777 6.318-4.902 10.285-6.375s8.302-2.21 13.005-2.21c1.7 0 3.457.17 5.27.51a25.68 25.68 0 0 1 5.44 1.445c1.813.68 3.542 1.587 5.185 2.72s3.117 2.522 4.42 4.165l-10.2 8.33zm17.219 3.23h12.75v6.63h.17c1.36-2.55 2.975-4.448 4.845-5.695 1.87-1.303 4.222-1.955 7.055-1.955a28.79 28.79 0 0 1 2.21.085c.737.057 1.417.17 2.04.34V37.74a15.59 15.59 0 0 0-2.72-.595c-.85-.17-1.757-.255-2.72-.255-2.437 0-4.363.34-5.78 1.02s-2.522 1.643-3.315 2.89c-.737 1.19-1.218 2.635-1.445 4.335s-.34 3.57-.34 5.61V68h-12.75V26.69zm34.784 0h12.75V68h-12.75V26.69zm-1.02-13.005c0-2.04.708-3.768 2.125-5.185 1.473-1.473 3.23-2.21 5.27-2.21s3.768.737 5.185 2.21c1.473 1.417 2.21 3.145 2.21 5.185s-.737 3.797-2.21 5.27c-1.417 1.417-3.145 2.125-5.185 2.125s-3.797-.708-5.27-2.125c-1.417-1.473-2.125-3.23-2.125-5.27zm51.065 23.205h-11.22v13.77c0 1.133.056 2.182.17 3.145.113.907.368 1.7.765 2.38s.991 1.218 1.785 1.615c.85.34 1.955.51 3.315.51.68 0 1.558-.057 2.635-.17 1.133-.17 1.983-.51 2.55-1.02v10.625c-1.417.51-2.89.85-4.42 1.02s-3.032.255-4.505.255c-2.154 0-4.137-.227-5.95-.68s-3.4-1.162-4.76-2.125c-1.36-1.02-2.437-2.323-3.23-3.91-.737-1.587-1.105-3.513-1.105-5.78V36.89h-8.16v-10.2h8.16V14.45h12.75v12.24h11.22v10.2zm6.649-10.2h12.75V68h-12.75V26.69zm-1.02-13.005c0-2.04.708-3.768 2.125-5.185 1.473-1.473 3.23-2.21 5.27-2.21s3.768.737 5.185 2.21c1.473 1.417 2.21 3.145 2.21 5.185s-.737 3.797-2.21 5.27c-1.417 1.417-3.145 2.125-5.185 2.125s-3.797-.708-5.27-2.125c-1.417-1.473-2.125-3.23-2.125-5.27zm50.895 26.35c-.623-.907-1.502-1.643-2.635-2.21-1.133-.623-2.352-.935-3.655-.935-3.23 0-5.752.963-7.565 2.89-1.757 1.927-2.635 4.448-2.635 7.565s.878 5.638 2.635 7.565c1.813 1.927 4.335 2.89 7.565 2.89 1.417 0 2.635-.312 3.655-.935s1.898-1.36 2.635-2.21l8.415 8.84a16.59 16.59 0 0 1-7.055 4.335c-2.663.793-5.213 1.19-7.65 1.19-3.173 0-6.177-.51-9.01-1.53-2.777-1.02-5.213-2.465-7.31-4.335-2.04-1.927-3.655-4.222-4.845-6.885s-1.785-5.638-1.785-8.925.595-6.262 1.785-8.925 2.805-4.93 4.845-6.8c2.097-1.927 4.533-3.4 7.31-4.42 2.833-1.02 5.837-1.53 9.01-1.53 2.437 0 4.987.425 7.65 1.275 2.72.793 5.072 2.21 7.055 4.25l-8.415 8.84zm38.966 22.78h-.17c-1.417 2.21-3.315 3.797-5.695 4.76-2.323.963-4.788 1.445-7.395 1.445-1.927 0-3.797-.283-5.61-.85-1.757-.51-3.315-1.303-4.675-2.38s-2.437-2.408-3.23-3.995-1.19-3.428-1.19-5.525c0-2.38.425-4.392 1.275-6.035a12.41 12.41 0 0 1 3.57-4.08c1.53-1.077 3.258-1.898 5.185-2.465 1.927-.623 3.91-1.077 5.95-1.36 2.097-.283 4.165-.453 6.205-.51l5.78-.085c0-2.267-.822-4.052-2.465-5.355-1.587-1.36-3.485-2.04-5.695-2.04-2.097 0-4.023.453-5.78 1.36-1.7.85-3.23 2.04-4.59 3.57l-6.8-6.97c2.38-2.21 5.157-3.853 8.33-4.93 3.173-1.133 6.46-1.7 9.86-1.7 3.74 0 6.8.482 9.18 1.445 2.437.907 4.363 2.267 5.78 4.08 1.473 1.813 2.493 4.052 3.06 6.715.567 2.607.85 5.638.85 9.095V68h-11.73v-5.185zm-3.145-12.92c-.963 0-2.182.057-3.655.17-1.417.057-2.805.283-4.165.68-1.303.397-2.437.992-3.4 1.785-.907.793-1.36 1.898-1.36 3.315 0 1.53.652 2.663 1.955 3.4s2.663 1.105 4.08 1.105c1.247 0 2.437-.17 3.57-.51 1.19-.34 2.238-.822 3.145-1.445a6.59 6.59 0 0 0 2.125-2.38c.567-.963.85-2.097.85-3.4v-2.72h-3.145zM260.912 3.74h12.75V68h-12.75V3.74zM4.12 89.82h20.06l13.855 39.27h.17l13.94-39.27H72.12V150H58.86v-46.155h-.17L42.88 150H32.765L17.55 103.845h-.17V150H4.12V89.82zm77.124 39.525c0-3.287.595-6.262 1.785-8.925s2.805-4.93 4.845-6.8c2.097-1.927 4.533-3.4 7.31-4.42 2.833-1.02 5.836-1.53 9.01-1.53s6.148.51 8.925 1.53c2.833 1.02 5.27 2.493 7.31 4.42 2.096 1.87 3.74 4.137 4.93 6.8s1.785 5.638 1.785 8.925-.595 6.262-1.785 8.925-2.834 4.958-4.93 6.885c-2.04 1.87-4.477 3.315-7.31 4.335-2.777 1.02-5.752 1.53-8.925 1.53s-6.177-.51-9.01-1.53c-2.777-1.02-5.213-2.465-7.31-4.335-2.04-1.927-3.655-4.222-4.845-6.885s-1.785-5.638-1.785-8.925zm12.75 0c0 3.117.878 5.638 2.635 7.565 1.813 1.927 4.335 2.89 7.565 2.89s5.723-.963 7.48-2.89c1.813-1.927 2.72-4.448 2.72-7.565s-.907-5.638-2.72-7.565c-1.757-1.927-4.25-2.89-7.48-2.89s-5.752.963-7.565 2.89c-1.757 1.927-2.635 4.448-2.635 7.565zm40.659-20.655h12.24v5.61h.17c.397-.793.964-1.587 1.7-2.38s1.615-1.502 2.635-2.125 2.182-1.133 3.485-1.53 2.72-.595 4.25-.595c2.89 0 5.44.595 7.65 1.785 2.267 1.19 3.967 3.06 5.1 5.61 1.474-2.663 3.259-4.562 5.355-5.695s4.675-1.7 7.735-1.7c2.777 0 5.1.482 6.97 1.445 1.927.907 3.429 2.182 4.505 3.825 1.134 1.587 1.927 3.485 2.38 5.695.51 2.153.765 4.477.765 6.97V150h-12.75v-24.055c0-1.927-.425-3.57-1.275-4.93-.793-1.417-2.238-2.125-4.335-2.125-1.473 0-2.72.255-3.74.765-.963.453-1.756 1.105-2.38 1.955-.566.85-.991 1.842-1.275 2.975-.226 1.133-.34 2.323-.34 3.57V150h-12.75v-21.845c0-.737-.028-1.643-.085-2.72s-.255-2.097-.595-3.06-.906-1.785-1.7-2.465c-.736-.68-1.841-1.02-3.315-1.02-1.643 0-2.975.312-3.995.935-1.02.567-1.813 1.36-2.38 2.38-.51.963-.85 2.068-1.02 3.315s-.255 2.55-.255 3.91V150h-12.75v-41.31zm113.06 34.17c-2.04 2.607-4.618 4.618-7.735 6.035s-6.346 2.125-9.69 2.125c-3.173 0-6.176-.51-9.01-1.53-2.776-1.02-5.213-2.465-7.31-4.335-2.04-1.927-3.655-4.222-4.845-6.885s-1.785-5.638-1.785-8.925.595-6.262 1.785-8.925 2.805-4.93 4.845-6.8c2.097-1.927 4.534-3.4 7.31-4.42 2.834-1.02 5.837-1.53 9.01-1.53 2.947 0 5.61.51 7.99 1.53 2.437 1.02 4.477 2.493 6.12 4.42 1.7 1.87 3.004 4.137 3.91 6.8s1.36 5.638 1.36 8.925v3.995h-29.58c.51 2.437 1.615 4.392 3.315 5.865 1.7 1.417 3.797 2.125 6.29 2.125 2.097 0 3.854-.453 5.27-1.36 1.474-.963 2.749-2.182 3.825-3.655l8.925 6.545zm-10.795-18.19c.057-2.153-.651-3.995-2.125-5.525s-3.371-2.295-5.695-2.295c-1.416 0-2.663.227-3.74.68s-2.011 1.048-2.805 1.785a7.9 7.9 0 0 0-1.785 2.465c-.396.907-.623 1.87-.68 2.89h16.83zm20.504-15.98h12.24v5.61h.17c.397-.793.963-1.587 1.7-2.38s1.615-1.502 2.635-2.125 2.182-1.133 3.485-1.53 2.72-.595 4.25-.595c3.23 0 5.837.51 7.82 1.53 1.983.963 3.513 2.323 4.59 4.08 1.133 1.757 1.898 3.825 2.295 6.205s.595 4.958.595 7.735V150h-12.75v-20.23a40.5 40.5 0 0 0-.17-3.655c-.057-1.303-.312-2.493-.765-3.57-.397-1.077-1.048-1.955-1.955-2.635-.85-.68-2.097-1.02-3.74-1.02s-2.975.312-3.995.935c-1.02.567-1.813 1.36-2.38 2.38-.51.963-.85 2.068-1.02 3.315s-.255 2.55-.255 3.91V150h-12.75v-41.31zm76.944 10.2h-11.22v13.77c0 1.133.056 2.182.17 3.145.113.907.368 1.7.765 2.38s.991 1.218 1.785 1.615c.85.34 1.955.51 3.315.51.68 0 1.558-.057 2.635-.17 1.133-.17 1.983-.51 2.55-1.02v10.625c-1.417.51-2.89.85-4.42 1.02s-3.032.255-4.505.255c-2.154 0-4.137-.227-5.95-.68s-3.4-1.162-4.76-2.125c-1.36-1.02-2.437-2.323-3.23-3.91-.737-1.587-1.105-3.513-1.105-5.78V118.89h-8.16v-10.2h8.16V96.45h12.75v12.24h11.22v10.2zm29.854 1.955c-1.87-2.323-4.335-3.485-7.395-3.485-1.077 0-2.125.255-3.145.765s-1.53 1.388-1.53 2.635c0 1.02.51 1.785 1.53 2.295 1.077.453 2.408.878 3.995 1.275a130.74 130.74 0 0 1 5.185 1.19c1.87.397 3.598 1.048 5.185 1.955 1.643.907 2.975 2.153 3.995 3.74 1.077 1.53 1.615 3.598 1.615 6.205 0 2.663-.595 4.873-1.785 6.63-1.133 1.7-2.607 3.088-4.42 4.165-1.813 1.02-3.853 1.728-6.12 2.125-2.267.453-4.505.68-6.715.68-2.89 0-5.808-.397-8.755-1.19-2.947-.85-5.44-2.323-7.48-4.42l7.735-8.585c1.19 1.473 2.493 2.607 3.91 3.4 1.473.737 3.173 1.105 5.1 1.105 1.473 0 2.805-.198 3.995-.595 1.19-.453 1.785-1.247 1.785-2.38 0-1.077-.538-1.87-1.615-2.38-1.02-.567-2.352-1.02-3.995-1.36-1.587-.397-3.315-.793-5.185-1.19-1.813-.453-3.542-1.105-5.185-1.955-1.587-.85-2.918-2.04-3.995-3.57-1.02-1.587-1.53-3.683-1.53-6.29 0-2.437.482-4.533 1.445-6.29 1.02-1.757 2.323-3.202 3.91-4.335 1.643-1.133 3.513-1.955 5.61-2.465a24.32 24.32 0 0 1 6.375-.85c2.72 0 5.468.397 8.245 1.19s5.128 2.21 7.055 4.25l-7.82 7.735z" fill="#180042"/></g><defs><clipPath id="A"><path fill="#fff" d="M0 0h420v154H0z"/></clipPath></defs></svg>
